!!!COM: Joplin, Scott
!!!CDT: 1868/11/24/-1917/04/01/
!!!OTL: The Crush Collision March
!!!ODT: 1896///
**kern	**kern	**dynam
*staff2	*staff1	*staff1/2
*Ipiano	*Ipiano	*Ipiano
*>[I,A,A1,A,A2,B,B1,B,B2,C,C1,C,C2,D,D1,D,D2,E,E1,E,E2]	*>[I,A,A1,A,A2,B,B1,B,B2,C,C1,C,C2,D,D1,D,D2,E,E1,E,E2]	*>[I,A,A1,A,A2,B,B1,B,B2,C,C1,C,C2,D,D1,D,D2,E,E1,E,E2]
*>norep[I,A,A2,B,B2,C,C2,D,D2,E,E2]	*>norep[I,A,A2,B,B2,C,C2,D,D2,E,E2]	*>norep[I,A,A2,B,B2,C,C2,D,D2,E,E2]
*>I	*>I	*>I
*clefF4	*clefG2	*clefG2
*k[b-]	*k[b-]	*k[b-]
*met(C)	*met(C)	*met(C)
*M4/4	*M4/4	*M4/4
*MM132	*MM132	*MM132
4FF 4F	4f 4ff	.
=1	=1	=1
8EE 8EL	8e 8eeL	.
8DD 8D	8d 8dd	.
8CC# 8C#	8c# 8cc#	.
8BBB- 8BB-J	8B- 8b-J	.
4AAA 4AA	4A 4a	.
4FF 4F	4f 4ff	.
=2	=2	=2
8EE 8EL	8e 8eeL	.
8DD 8D	8d 8dd	.
8CC# 8C#	8c# 8cc#	.
8BBB- 8BB-J	8B- 8b-J	.
4AAA 4AA	4A 4a	.
4GGG# 4GG#	4G# 4g#	.
=3	=3	=3
4AAA 4AA	4A 4a	.
4BBB- 4BB-	4B- 4b-	.
4AAA 4AA	4A 4a	.
4AA 4A	4a 4cc# 4ee 4aa	.
=4	=4	=4
8DD 8DL	8dd 8ff 8aa 8dddL	.
8EE 8E	8cc# 8ccc#	.
8FF 8F	8dd 8ff 8aa 8ddd	.
8EE 8EJ	8cc# 8ccc#J	.
4DD 4D	4dd 4ff 4aa 4ddd	.
4r	4f	.
=5!|:	=5!|:	=5!|:
*>A	*>A	*>A
*	*^	*
4DD 4D	2a	4r	mf
4r	.	4A 4d 4f	.
4EE 4E	2a	4r	.
4r	.	4A 4c# 4e 4g	.
=6	=6	=6	=6
4FF 4F	2a	4r	.
4r	.	4A 4d 4f	.
4FF# 4F#	2a	4r	.
4AA 4A	.	4c 4d 4f#	.
*	*v	*v	*
=7	=7	=7
4BB- 4B-	4.g	.
4G 4B- 4d	.	.
.	8a	.
4GG 4G	4b-	.
4G 4B- 4d	4dd	.
=8	=8	=8
4DD 4D	8aL	.
.	8dd	.
4A 4d 4f	8cc#	.
.	8ddJ	.
4DD 4D	2a	.
4A 4d 4f	.	.
=9	=9	=9
4BB- 4B-	4.g	.
4G 4B- 4d	.	.
.	8a	.
4GG 4G	4b-	.
4G 4B- 4d	4dd	.
=10	=10	=10
4DD 4D	8aL	.
.	8dd	.
4A 4d 4f	8cc#	.
.	8ddJ	.
4DD 4D	2a 2dd 2ff	.
4A 4d 4f	.	.
=11	=11	=11
4EE 4E	2e 2g# 2bn 2ee	.
4E 4G# 4Bn 4d	.	.
4EE 4E	8ffL	.
.	8ee	.
4E 4G# 4B 4d	8dd#	.
.	8eeJ	.
=12	=12	=12
4AA 4A	4a 4cc# 4ee 4aa	.
4AA 4A	4a 4cc# 4ee 4aa	.
(8AAL	(8AL	.
8GG#J	8G#J	.
4AA)	4A)	.
=13	=13	=13
*	*^	*
4DD 4D	2a	4r	.
4r	.	4A 4d 4f	.
4EE 4E	2a	4r	.
4r	.	4A 4c# 4e 4g	.
=14	=14	=14	=14
4FF 4F	2a	4r	.
4r	.	4A 4d 4f	.
4FF# 4F#	2a	4r	.
4AA 4A	.	4c 4d 4f#	.
*	*v	*v	*
=15	=15	=15
4BB- 4B-	4.g	.
4G 4B- 4d	.	.
.	8a	.
4GG 4G	4b-	.
4G 4B- 4d	4dd	.
=16	=16	=16
4DD 4D	8aL	.
.	8dd	.
4A 4d 4f	8cc#	.
.	8ddJ	.
4DD 4D	2a	.
4A 4d 4f	.	.
=17	=17	=17
4FF 4F	4.a 4.dd	.
4A 4d 4f	.	.
.	8a 8ee	.
4DD 4D	4a 4ff	.
4A 4d 4f	4a 4dd	.
=18	=18	=18
4GG 4G	4b- 4dd 4bb-	.
4BB- 4B-	4g# 4dd 4gg#	.
4AA 4A	4a 4cc# 4ee 4aa	.
4EE 4E	4e 4g# 4bn 4ee	.
=19	=19	=19
4AAA 4AA	2a 2cc# 2ee 2aa	.
4A 4c# 4e 4g	.	.
4CC# 4C#	8bb-L	.
.	8aa	.
4A 4c# 4e 4g	8gg#	.
.	8aaJ	.
=20	=20	=20
*>A1	*>A1	*>A1
4DD 4D	4dd 4ff 4aa 4ddd	.
4AA 4A	4r	.
4FF 4F	2r	.
4EE 4E	.	.
=21:|!	=21:|!	=21:|!
*>A2	*>A2	*>A2
4DD 4D	4dd 4ff 4aa 4ddd	.
4r	4a 4ff	.
2r	4a 4ee	.
.	4a 4dd	.
=22!|:	=22!|:	=22!|:
*>B	*>B	*>B
*	*^	*
4CC 4C	[1ee	4r	.
4DD 4D	.	4g 4b-	.
4EE 4E	.	4g 4b-	.
4FF 4F	.	4g 4b-	.
=23	=23	=23	=23
4GG 4G	4ee]	4g 4b-	.
4B- 4c 4e	4r	4b- 4cc	.
4CC 4C	2r	4b- 4dd	.
4B- 4c 4e	.	4b- 4ee	.
=24	=24	=24	=24
4FF 4F	(2.aa	4r	.
4GG 4G	.	4a 4cc	.
4AA 4A	.	4a 4cc	.
4BB- 4B-	4ff)	4f 4dd	.
*	*v	*v	*
=25	=25	=25
4AA 4A	4f 4cc 4ff	.
4A 4c 4f	4cc 4ccc	.
4FF 4F	4.cc 4.ccc	.
4A 4c 4f	.	.
.	8a 8aa	.
=26	=26	=26
*	*^	*
4GG 4G	1b- [1bb-	4r	.
4C 4c	.	4cc 4ee	.
4BB- 4B-	.	4cc 4ee	.
4GG 4G	.	4cc 4ee	.
=27	=27	=27	=27
4EE 4E	4bb-]	4cc 4ee	.
4B- 4c 4e	4r	4cc 4ccc	.
4CC 4C	2r	4.cc 4.ccc	.
4B- 4c 4e	.	.	.
.	.	8g# 8gg#	.
=28	=28	=28	=28
4FF 4F	1a [1aa	4r	.
4C 4c	.	4cc 4ff	.
4AA 4A	.	4cc 4ff	.
4GG 4G	.	4cc 4ff	.
*	*v	*v	*
=29	=29	=29
4FF 4F	4cc 4ff 4aa]	.
4A 4c 4f	4a 4ffn	.
4A 4c 4f	4a 4ee	.
4A 4c 4f	4a 4dd	.
=30	=30	=30
*	*^	*
4AAA 4AA	[1cc#	4r	.
4BBBn 4BBn	.	4e 4g	.
4CC# 4C#	.	4e 4g	.
4DD 4D	.	4e 4g	.
*	*v	*v	*
=31	=31	=31
4EE 4E	4e 4g 4cc#]	.
4G 4A 4c#	4a 4aa	.
4C#	4e 4ee	.
4A 4c#	4g 4gg	.
=32	=32	=32
*	*^	*
4D	1f 1ff	4r	.
4A 4d	.	4a 4dd	.
4A 4d	.	4a 4dd	.
4A 4d	.	4a 4dd	.
*	*v	*v	*
=33	=33	=33
4FF# 4F#	4dd# 4aa	.
4A 4c 4d#	4dd# 4ccc	.
4A 4c 4d#	4dd# 4bbn	.
4A 4c 4d#	4dd# 4aa	.
=34	=34	=34
*	*^	*
4GG 4G	1g [1gg	4r	.
4C 4c	.	4cc 4ee	.
4BBn 4Bn	.	4cc 4ee	.
4AA 4A	.	4cc 4ee	.
*	*v	*v	*
=35	=35	=35
4GG 4G	4bn 4dd 4gg]	.
4G 4Bn 4d 4f	4ff 4gg	.
4GG 4G	4ff 4aa	.
4G 4B 4d 4f	4ff 4bbn	.
=36	=36	=36
*>B1	*>B1	*>B1
4C 4c	2ee 2gg 2ccc	.
4E 4e	.	.
4D 4d	4r	.
4BBn 4Bn	4dd 4ff 4gg	.
=37	=37	=37
4C 4c	4cc 4ee 4gg 4ccc	.
4r	4a 4ff	.
2r	4a 4ee	.
.	4a 4dd	.
=38:|!	=38:|!	=38:|!
*>B2	*>B2	*>B2
4C 4c	2ee 2gg 2ccc	.
4E 4e	.	.
4D 4d	4r	.
4BBn 4Bn	4dd 4ff 4gg	.
=39	=39	=39
4C 4c	4cc 4ee 4gg 4ccc	.
4r	4gg	.
2r	4ee	.
.	4cc	.
=40!|:	=40!|:	=40!|:
*>C	*>C	*>C
4GG 4G	2.b- 2.dd	.
4B- 4c 4e	.	.
4CC 4C	.	.
4B- 4c 4e	(8eeL	.
.	8ggJ)	.
=41	=41	=41
4EE 4E	4b- 4dd	.
4B- 4c 4e	4b- 4dd-	.
4CC 4C	4b- 4cc	.
4B- 4c 4e	(8ffL	.
.	8eeJ)	.
=42	=42	=42
4FF 4F	2.dd	.
4A 4c 4f	.	.
4CC 4C	.	.
4A 4c 4f	(8ffL	.
.	8aaJ)	.
=43	=43	=43
4FF 4F	4a 4dd	.
4A 4c 4f	4a 4dd-	.
4AA 4A	4a 4cc	.
4A 4c 4f	(8ffL	.
.	8aaJ)	.
=44	=44	=44
4GG 4G	8ee 8gg 8bb- (8dddL	.
.	8ee	.
4B- 4c 4e	8gg	.
.	8bb-J)	.
4CC 4C	4ee 4gg 4bb- 4ddd	.
4B- 4c 4e	4ee 4gg 4bb- 4ddd	.
=45	=45	=45
4EE 4E	8ee 8gg 8bb- (8dddL	.
.	8ccc	.
4B- 4c 4e	8bb-	.
.	8ggJ	.
4CC 4C	8eeL	.
.	8dd	.
4B- 4c 4e	8dd-	.
.	8ccJ)	.
=46	=46	=46
4AA 4A	8cc 8ff 8aa (8cccL	.
.	8cc	.
4A 4c 4f	8ff	.
.	8aaJ)	.
4FF 4F	4cc 4ff 4aa 4ccc	.
4A 4c 4f	4cc 4ff 4aa 4ccc	.
=47	=47	=47
4AA 4A	(8cccL	.
.	8aa	.
4A 4c 4f	8ff	.
.	8ccJ	.
4FF 4F	8aaL	.
.	8ff	.
4A 4c 4f	8cc)	.
.	8aJ	.
=48	=48	=48
4GG 4G	2.b- 2.dd	.
4B- 4c 4e	.	.
4CC 4C	.	.
4B- 4c 4e	(8eeL	.
.	8ggJ)	.
=49	=49	=49
4EE 4E	4b- 4dd	.
4B- 4c 4e	4b- 4dd-	.
4CC 4C	4b- 4cc	.
4B- 4c 4e	(8ffL	.
.	8eeJ)	.
=50	=50	=50
4FF 4F	2.a 2.dd	.
4A 4c 4f	.	.
4CC 4C	.	.
4A 4c 4f	(8ffL	.
.	8aaJ)	.
=51	=51	=51
4FF 4F	4a 4dd	.
4A 4c 4f	4a 4dd	.
4AA 4A	4a 4ff	.
4A 4c 4f	4a 4aa	.
*clefG2	*	*
=52	=52	=52
4d 4f# 4a 4cc	8dd 8ff# 8aa (8dddL	.
.	8dd	.
4d 4f# 4a 4cc	8ff#	.
.	8aaJ)	.
4g 4b-	8dd 8gg (8dddL	.
.	8dd	.
4g 4b-	8gg	.
.	8bb-J)	.
=53	=53	=53
4A 4c# 4e 4g	8a 8cc# 8ee (8aaL	.
.	8a	.
4A 4c# 4e 4g	8cc#	.
.	8eeJ)	.
4d 4fn	8a 8dd (8aaL	.
.	8a	.
4d 4f	8dd	.
.	8ffnJ)	.
=54	=54	=54
4B- 4d 4f 4b-	(8ddL	.
.	8ff	.
4Bn 4d 4f 4g#	8ee	.
.	8ddJ	.
4c 4f 4a	8ddL	.
.	8cc	.
4c 4f 4a	8ff)	.
.	8aaJ	.
*clefF4	*	*
=55	=55	=55
*>C1	*>C1	*>C1
8CC 8CL	2b- 2gg	.
8CC# 8C#	.	.
8DD 8D	.	.
8EE 8EJ	.	.
4FF 4F	4a 4ff	.
4r	4cc	.
=56:|!	=56:|!	=56:|!
*>C2	*>C2	*>C2
8CC 8CL	2b- 2gg	.
8CC# 8C#	.	.
8DD 8D	.	.
8EE 8EJ	.	.
4FF 4F	4a 4ff	.
4r	4f	.
=57	=57	=57
*>D	*>D	*>D
*k[b-e-]	*k[b-e-]	*k[b-e-]
4BB-	2dd	.
4F 4B- 4d	.	.
4BB-	4.cc	.
4F 4B- 4d	.	.
.	8dd	.
=58	=58	=58
4C	2ee-	.
4F 4A 4e-	.	.
4FF	2a 2ee- 2aa	.
4F 4A 4e-	.	.
=59	=59	=59
4C	2ee-	.
4F 4A 4e-	.	.
4FF	4.dd	.
4F 4A 4e-	.	.
.	8ee-	.
=60	=60	=60
4BB-	2ff	.
4F 4B- 4d	.	.
4D	2b- 2dd 2ff 2bb-	.
4F 4B- 4d	.	.
=61	=61	=61
4BBn	2dd 2ddd	.
4G 4Bn 4d 4f	.	.
4GG	4.dd 4.ddd	.
4G 4B 4d 4f	.	.
.	8bn 8bbn	.
=62	=62	=62
4C	2cc 2ee- 2ccc	.
4G 4c 4e-	.	.
4E-	2g 2ee- 2gg	.
4G 4c 4e-	.	.
=63	=63	=63
4AA	2cc 2ee- 2ccc	.
4F 4A 4c 4e-	.	.
4FF	4.cc 4.ee- 4.ccc	.
4F 4A 4c 4e-	.	.
.	8a 8aa	.
=64	=64	=64
4BB-	2b- 2dd 2ff 2bb-	.
4F 4B- 4d	.	.
4D	2f 2b- 2dd 2ff	.
4F 4B- 4d	.	.
=65	=65	=65
4BB-	2dd	.
4F 4B- 4d	.	.
4BB-	4.cc	.
4F 4B- 4d	.	.
.	8dd	.
=66	=66	=66
4C	2ee-	.
4F 4A 4e-	.	.
4FF	2a 2ee- 2aa	.
4F 4A 4e-	.	.
=67	=67	=67
4C	2ee-	.
4F 4A 4e-	.	.
4FF	4.dd	.
4F 4A 4e-	.	.
.	8ee-	.
=68	=68	=68
4BB-	2ff	.
4F 4B- 4d	.	.
4D	2b- 2dd 2ff 2bb-	.
4F 4B- 4d	.	.
=69	=69	=69
4E-	2b- 2bb-	.
4G 4B- 4e-	.	.
4En	4.g 4.gg	.
4G 4B- 4c#	.	.
.	8b- 8bb-	.
=70	=70	=70
4F	2dd 2ddd	.
4B- 4d	.	.
4D	4.ff 4.fff	.
4F 4B- 4d	.	.
.	8dd 8ddd	.
=71	=71	=71
4C	2cc 2een 2ccc	.
4B- 4c 4en	.	.
4FF	2cc 2ee- 2ccc	.
4F 4A 4c 4e-	.	.
=72	=72	=72
*>D1	*>D1	*>D1
4BB-	4.b- 4.dd 4.ff 4.bb-	.
4F 4B- 4d	.	.
.	8f	.
4FF	8gL	.
.	8a	.
4F 4B- 4d	8b-	.
.	8ccJ	.
=73:|!	=73:|!	=73:|!
*>D2	*>D2	*>D2
4BB- 4B-	2.b- 2.dd 2.ff 2.bb-	.
4FF 4F	.	.
4BBB- 4BB-	.	.
4DD 4D	4r	.
=74!|:	=74!|:	=74!|:
*>E	*>E	*>E
4GG 4G	4r	.
4BB- 4B-	4gg 4bb- 4ddd 4ggg	.
4AA 4A	4ff# 4ccc 4ddd 4fff#	.
4r	4dd 4ddd	.
=75	=75	=75
4r	4gg 4ggg	.
4GG 4G	4bb- 4ddd 4bbb-	.
4FF# 4F#	4aa 4ccc 4aaa	.
4DD 4D	4dd 4ff# 4aa 4ddd	.
=76	=76	=76
2GG 2G	2gg 2bb- 2ddd 2ggg	.
2AA 2A	2a 2cc# 2een 2aa	.
=77	=77	=77
4DD 4D	4dd 4ff# 4aa 4ddd	.
4DD 4D	4dd 4ff# 4aa 4ddd	.
4r	2r	.
4CC 4C	.	.
=78	=78	=78
4FF 4F	4r	.
4AA 4A	4ff 4aa 4ccc 4fff	.
4GG 4G	4een 4bb- 4ccc 4eeen	.
4r	4cc 4ccc	.
=79	=79	=79
4r	4ff 4fff	.
4FF 4F	4aa 4ccc 4aaa	.
4EEn 4En	4gg 4bb- 4ggg	.
4CC 4C	4een 4gg 4bb- 4eeen	.
=80	=80	=80
2FF 2F	2ffn 2aa 2ccc 2fffn	.
2CC 2C	2een 2gg 2bb- 2eeen	.
=81	=81	=81
4FF 4F	4ff 4aa 4ccc 4fff	.
4FF 4F	4ff 4aa 4ccc 4fff	.
4r	4r	.
4EE-	4c 4f# 4a	.
=82	=82	=82
(8EEnL	4c 4en 4g	ff
8EE-	.	.
8DD	4Bn 4fn 4g	.
8DD-J	.	.
8CCL	4c 4e 4g	.
8DD-	.	.
8DDn	4B 4f 4g	.
8EE-J)	.	.
=83	=83	=83
(8EEnL	4c 4en 4g	ff
8EE-	.	.
8DD	4Bn 4f 4g	.
8DD-J)	.	.
4CC	4c 4e 4g	.
4r	4r	.
*clefG2	*	*
=84	=84	=84
(aq	bnq	.
2b-)	2cc	.
aq	bq	.
2b-	2cc	.
=85	=85	=85
(aq	bnq	.
4b-)	4cc	.
(aq	bq	.
4b-)	4cc	.
4r	4r	.
*clefF4	*	*
4CC	4en 4b- 4cc	.
=86	=86	=86
8AAAL	4f 4a 4cc	.
8AAA-	.	.
8GGG	4en 4b- 4cc	.
8GGG-J	.	.
8FFFL	4f 4a 4cc	.
8GGG-	.	.
8GGGn	4e 4b- 4cc	.
8AAA-J	.	.
=87	=87	=87
(8AAAL	4f 4a 4cc	.
8AAA-	.	.
8GGG	4en 4b- 4cc	.
8GGG-J)	.	.
4FFF	4f 4a 4cc	.
4r	4r	.
*clefG2	*	*
=88	=88	=88
(ddq	eenq	.
4ee-')	4ff'	.
ddq	eeq	.
4ee-'	4ff'	.
(ddq	eeq	.
4ee-')	4ff'	.
(ddq	eeq	.
4ee-')	4ff'	.
=89	=89	=89
ddq	eenq	.
4ee-	4ff'	.
4r	4r	.
*	*clefF4	*clefF4
2D; 2d;	2AA; 2C; 2E-; 2F;	ff
=90	=90	=90
*clefF4	*clefG2	*clefG2
4BB-	2d 2dd	mf
4F 4B-	.	.
4BB-	4.c 4.cc	.
4F 4B-	.	.
.	8d 8dd	.
=91	=91	=91
4C	2e- 2ee-	.
4F 4A	.	.
4FF	2a 2ee- 2aa	.
4F 4A	.	.
=92	=92	=92
4C	2e- 2ee-	.
4F 4A	.	.
4FF	4.d 4.dd	.
4F 4A	.	.
.	8e- 8ee-	.
=93	=93	=93
4BB-	2f 2b- 2dd 2ff	.
4F 4B- 4d	.	.
4D	2b- 2dd 2ff 2bb-	.
4F 4B- 4d	.	.
=94	=94	=94
4BBn	2dd 2ddd	.
4G 4Bn 4d 4f	.	.
4GG	4.dd 4.ddd	.
4G 4B 4d 4f	.	.
.	8bn 8bbn	.
=95	=95	=95
4C	2cc 2ee- 2ccc	.
4G 4c 4e-	.	.
4E-	2g 2ee- 2gg	.
4G 4c 4e-	.	.
=96	=96	=96
4AA	2cc 2ee- 2ccc	.
4F 4A 4e-	.	.
4FF	4.cc 4.ee- 4.ccc	.
4F 4A 4e-	.	.
.	8a 8aa	.
=97	=97	=97
4BB-	2b- 2dd 2ff 2bb-	.
4F 4B- 4d	.	.
4D	2f 2b- 2dd 2ff	.
4F 4B- 4d	.	.
=98	=98	=98
4BB-	2d 2dd	.
4F 4B-	.	.
4BB-	4.c 4.cc	.
4F 4B-	.	.
.	8d 8dd	.
=99	=99	=99
4C	2e- 2ee-	.
4F 4A	.	.
4FF	2a 2ee- 2aa	.
4F 4A	.	.
=100	=100	=100
4C	2e- 2ee-	.
4F 4A	.	.
4FF	4.d 4.dd	.
4F 4A	.	.
.	8e- 8ee-	.
=101	=101	=101
4BB-	2f 2b- 2dd 2ff	.
4F 4B- 4d	.	.
4D	2b- 2dd 2ff 2bb-	.
4F 4B- 4d	.	.
=102	=102	=102
4E-	2b- 2bb-	.
4G 4B- 4e-	.	.
4En	4.g 4.gg	.
4G 4B- 4c#	.	.
.	8b- 8bb-	.
=103	=103	=103
4F	2dd 2ddd	.
4B- 4d	.	.
4D	4.ff 4.fff	.
4F 4B- 4d	.	.
.	8dd 8ddd	.
=104	=104	=104
4C	2cc 2een 2ccc	.
4B- 4c 4en	.	.
4FF	2cc 2ee- 2ccc	.
4F 4A 4e-	.	.
=105	=105	=105
*>E1	*>E1	*>E1
4BB- 4B-	2.b- 2.dd 2.ff 2.bb-	.
4FF 4F	.	.
4BBB- 4BB-	.	.
4DD 4D	4r	.
=106:|!	=106:|!	=106:|!
*>E2	*>E2	*>E2
2BBB- 2BB-	2b- 2dd 2ff 2bb-	.
4r	4r	.
==	==	==
*-	*-	*-
!!!ENC: Craig Stuart Sapp
!!!END: 2004/11/28/
